scalable/actions/edit-paste.svg

<?xml version="1.0" encoding="UTF-8" standalone="no"?>
<svg
   xmlns:dc="http://purl.org/dc/elements/1.1/"
   xmlns:cc="http://creativecommons.org/ns#"
   xmlns:rdf="http://www.w3.org/1999/02/22-rdf-syntax-ns#"
   xmlns:svg="http://www.w3.org/2000/svg"
   xmlns="http://www.w3.org/2000/svg"
   xmlns:sodipodi="http://sodipodi.sourceforge.net/DTD/sodipodi-0.dtd"
   xmlns:inkscape="http://www.inkscape.org/namespaces/inkscape"
   viewBox="0 0 24 24"
   version="1.1"
   id="svg4"
   sodipodi:docname="edit-paste.svg"
   inkscape:version="0.92.3 (2405546, 2018-03-11)"
   width="24"
   height="24"
   style="fill:#000000">
  <metadata
     id="metadata10">
    <rdf:RDF>
      <cc:Work
         rdf:about="">
        <dc:format>image/svg+xml</dc:format>
        <dc:type
           rdf:resource="http://purl.org/dc/dcmitype/StillImage" />
        <dc:title></dc:title>
      </cc:Work>
    </rdf:RDF>
  </metadata>
  <defs
     id="defs8" />
  <sodipodi:namedview
     pagecolor="#ffffff"
     bordercolor="#666666"
     borderopacity="1"
     objecttolerance="10"
     gridtolerance="10"
     guidetolerance="10"
     inkscape:pageopacity="0"
     inkscape:pageshadow="2"
     inkscape:window-width="1366"
     inkscape:window-height="717"
     id="namedview6"
     showgrid="false"
     inkscape:zoom="22.5"
     inkscape:cx="12"
     inkscape:cy="12"
     inkscape:window-x="0"
     inkscape:window-y="25"
     inkscape:window-maximized="1"
     inkscape:current-layer="svg4"
     showguides="true"
     inkscape:guide-bbox="true" />
  <path
     inkscape:connector-curvature="0"
     d="M 18.999997,2.9999999 H 14.815001 C 14.405,1.8400001 13.305,1 12,1 10.694998,1 9.5949996,1.8400001 9.1849997,2.9999999 h -4.185 c -1.105,0 -2,0.8950002 -2,1.9999999 V 20.999998 c 0,1.105003 0.895,2.000002 2,2.000002 H 18.999997 c 1.105005,0 2.000001,-0.894999 2.000001,-2.000002 V 4.9999998 c 0,-1.1049997 -0.894996,-1.9999999 -2.000001,-1.9999999 z m -6.999997,0 c 0.55,0 1.000001,0.4450003 1.000001,0.9999999 0,0.5550003 -0.450001,1 -1.000001,1 -0.55,0 -1.000001,-0.4449997 -1.000001,-1 C 10.999999,3.4450002 11.45,2.9999999 12,2.9999999 Z M 18.999997,20.999998 H 4.9999997 V 4.9999998 H 6.9999995 V 8.0000002 H 16.999999 V 4.9999998 h 1.999998 z"
     id="path2-6"
     style="fill:#333333;stroke-width:0.49999985" />
</svg>

<svg xmlns="http://www.w3.org/2000/svg" viewBox="0 0 24 24">
  <path fill="#333" d="M19 3h-4.185c-.41-1.16-1.51-2-2.815-2s-2.405.84-2.815 2H5c-1.105 0-2 .895-2 2v16c0 1.105.895 2 2 2h14c1.105 0 2-.895 2-2V5c0-1.105-.895-2-2-2zm-7 0c.55 0 1 .445 1 1 0 .555-.45 1-1 1s-1-.445-1-1c0-.555.45-1 1-1zm7 18H5V5h2v3h10V5h2z"/>
</svg>
